X:1
T:Title
%%score { ( 1 3 ) | ( 2 4 ) }
L:1/8
Q:1/4=100
M:4/4
K:F
V:1 treble nm="Grand Piano"
V:3 treble 
V:2 bass 
V:4 bass 
V:1
 [A,C]2 [A,D]>[A,E] [A,F]2 [CA]2 | [DB]4[K:bass] [CA]4 | [Cc]2 [CB]>[CA] [CEG]2 [EA]2 | %3
w: Edwin~H.~Bookmyer * * * *|||
 [A,C]6 C,2 | C2 D>E[K:treble] F2 A2 | A2 G>[FA] [FB]2 [Fd]2 | [Fd]c A>F C2 [B,EG]2 | [A,CF]6 z2 | %8
w: |||||
 [DFB]4 [DFB]2 [DFB]2 | B>A A>_A =A2 A2 | [EG]>D D>E F2 [EG]2 | A4 z4 | d2 c2 A2 F>G | %13
w: |||||
 [^CA]>[CG] [CE]>[CF] D2 D2 | C>F A>F [Fc]2 [CFA]2 | [B,EG]4 [A,CF]4 |] %16
w: |||
V:2
 [F,,F,]2 [C,,C,]2 [F,,F,]2 [F,,F,]2 | [B,,F,]2 D,2 F,2 F,,2 | %2
 [C,,C,]2 [C,E,B,]2 [C,,C,]2 [C,B,C]2 | [F,,F,]2 C,2 A,,2 z2 | %4
 [F,A,]2 [C,A,C]>[C,A,C] [F,A,C]2 [F,CF]2 | [F,CF]2 [E,C]>[_E,C] [D,B,]2 [B,,B,]2 | %6
 [C,A,]C A,>F, C,2 C,2 | F,,6 z2 | B,,2 D,2 F,2 B,,2 | %9
 [F,DF]>[F,CF] [F,CF]>[F,=B,F] [F,CF]2 [F,CF]2 | [C,B,]>[C,B,] [C,B,]>[C,B,C] [C,A,C]2 [C,C]2 | %11
 [CF]4[K:treble] [CE]4 | [B,F]2 [A,CF]2[K:bass] [F,CF]2 [D,D]>[D,F,D] | %13
 [A,,E,]>[A,,E,] [A,,G,]>[A,,A,] [B,,F,]2 [B,,F,B,]2 | %14
 [C,F,A,]>[C,A,C] [C,F,C]>[C,A,C] [C,A,]2 C,2 | C,4 F,,4 |] %16
V:3
 x8 | z2[K:bass] F,2 z2 F,2 | x8 | x8 | x4[K:treble] x4 | x8 | x8 | x8 | x8 | x8 | x8 | z2 A,2 G4 | %12
 x8 | x8 | x8 | x8 |] %16
V:4
 x8 | x8 | x8 | x8 | x8 | x8 | x8 | x8 | x8 | x8 | x8 | F,2 z2[K:treble] z4 | x4[K:bass] x4 | x8 | %14
 x8 | x8 |] %16

